X:493
T: Des Mdchens Lebensstufen (199), S. 434
N: T0381
O: Luxemburg
S: Singendes Volk, Esch-Alzette, 1937 posth.]
N: Hamm, fff Elise Thomas, durch Vermittlung von
N: ff Erasmy erhalten, 14.6.1933
R: Hochzeits-, Ehestandslied]
M: 3/4
L: 1/8
K: C
EF | AGG2EF | AGG2
Gc | B2A2GF | F2E2
EF | AGG2EF | AGG2
Gc | B2A2GF | F2E2
EF | G2e2dc | c2B2
FA | A2G2Gd | d2c2

